symbols/web/60fps_select/materialsymbolssharp/60fps_select_wght600grad200_24px.svg

<svg xmlns="http://www.w3.org/2000/svg" height="24" width="24"><path d="M2.8 14.7V3.75h8.325V6.6H5.65v1.2h5.475v6.9Zm2.85-2.85h2.625v-1.2H5.65Zm7.225 2.85V3.75H21.2V14.7Zm2.85-2.85h2.625V6.6h-2.625ZM1.775 22.4v-5.475H4.1V22.4Zm4.325 0v-5.475h2.325V22.4Zm4.325 0v-5.475h2.3V22.4Zm4.3 0v-5.475h7.5V22.4Z"/></svg>

<svg xmlns="http://www.w3.org/2000/svg" height="24" width="24"><path d="M2.8 14.7V3.75H11.125V6.6H5.65V7.8H11.125V14.7ZM5.65 11.85H8.275V10.65H5.65ZM12.875 14.7V3.75H21.2V14.7ZM15.725 11.85H18.35V6.6H15.725ZM1.775 22.4V16.925H4.1V22.4ZM6.1 22.4V16.925H8.425V22.4ZM10.425 22.4V16.925H12.725V22.4ZM14.725 22.4V16.925H22.225V22.4Z"/></svg>
